data/icons/rotation-locked.svg

<?xml version="1.0" encoding="UTF-8" standalone="no"?>
<svg
   height="16"
   width="16"
   version="1.1"
   id="svg1"
   xmlns="http://www.w3.org/2000/svg"
   xmlns:svg="http://www.w3.org/2000/svg">
  <defs
     id="defs1" />
  <path
     id="path1"
     style="line-height:normal;font-variant-ligatures:normal;font-variant-position:normal;font-variant-caps:normal;font-variant-numeric:normal;font-variant-alternates:normal;font-feature-settings:normal;text-indent:0;text-align:start;text-decoration-line:none;text-decoration-style:solid;text-decoration-color:#000000;text-transform:none;text-orientation:mixed;shape-padding:0;isolation:auto;mix-blend-mode:normal;fill:#555761"
     d="M 8 4.0039062 C 6.8920033 4.0039062 6 4.9122064 6 6.0332031 L 6 7.0039062 L 5.5 7.0039062 C 5.5 7.0039062 5 7.0039077 5 7.5039062 L 5 10.503906 C 5 10.503906 5.0000015 11.003906 5.5 11.003906 L 10.5 11.003906 C 10.5 11.003906 11 11.003906 11 10.503906 L 11 7.5039062 C 11 7.0039077 10.5 7.0039063 10.5 7.0039062 L 10 7.0039062 L 10 6.0332031 C 10 4.9132064 9.1079967 4.0039063 8 4.0039062 z M 7.9492188 5.0039062 C 7.9663097 5.0030531 7.982688 5.0039062 8 5.0039062 C 8.5539982 5.0039062 9 5.445908 9 6.0039062 L 9 7.0039062 L 7 7.0039062 L 7 6.0039062 C 7 5.4633455 7.4193916 5.0303595 7.9492188 5.0039062 z " />
  <path
     style="line-height:normal;font-variant-ligatures:normal;font-variant-position:normal;font-variant-caps:normal;font-variant-numeric:normal;font-variant-alternates:normal;font-feature-settings:normal;text-indent:0;text-align:start;text-decoration-line:none;text-decoration-style:solid;text-decoration-color:#000000;text-transform:none;text-orientation:mixed;shape-padding:0;isolation:auto;mix-blend-mode:normal;fill:#555761;opacity:0.5"
     d="M 8.09375,0 C 7.8176686,-0.00321034 7.3700354,0.0196166 7.0957031,0.05078125 6.6940002,0.09641545 6.2964608,0.17159286 5.90625,0.27734375 5.6397698,0.34956249 5.214401,0.49476711 4.9589844,0.59960938 2.1270775,1.7620371 0.20541741,4.4446941 0.015625,7.5 c -0.01711967,0.2755949 -0.01711605,0.724434 0,1 0.18977248,3.05531 2.111463,5.737945 4.9433594,6.900391 0.2554428,0.104855 0.6808155,0.24992 0.9472656,0.322265 2.9550272,0.802336 6.114296,-0.157471 8.125,-2.466797 0.181322,-0.208248 0.138979,-0.523269 -0.08008,-0.691406 l -0.01367,-0.0098 c -0.219054,-0.168137 -0.532012,-0.124833 -0.714844,0.08203 -1.208361,1.367219 -2.903027,2.208182 -4.722656,2.34375 -0.2753216,0.02051 -0.7245994,0.0213 -1,0.002 C 4.0321889,14.737861 1.2621119,11.96781 1.0175781,8.5 c -0.0194197,-0.2753972 -0.0194202,-0.7245994 0,-1 C 1.2621149,4.0321919 4.0321911,1.2621119 7.5,1.0175781 c 0.2753972,-0.0194197 0.7246248,-0.019756 1,0 1.4815996,0.106293 2.882254,0.6812865 4.005859,1.6269531 l -1.279297,1.5488282 c -0.170334,0.2185821 -0.07344,0.5586489 0.140626,0.71875 0.07079,0.054896 0.156529,0.085919 0.246093,0.087891 h 3.90625 C 15.813498,4.976888 16.028654,4.6993204 15.996094,4.40625 L 15.277344,0.56835938 C 15.201802,0.20617923 14.655711,0.06246371 14.412109,0.33984375 L 13.144531,1.8730469 C 11.738,0.69213281 9.9549118,0.02164204 8.09375,0 Z"
     id="path2" />
</svg>

<?xml version="1.0" encoding="UTF-8"?>
<svg width="16" height="16" version="1.1" xmlns="http://www.w3.org/2000/svg">
 <path d="m8 4.0039c-1.108 0-2 0.9083-2 2.0293v0.9707h-0.5s-0.5 1.5e-6 -0.5 0.5v3s1.5e-6 0.5 0.5 0.5h5s0.5 0 0.5-0.5v-3c0-0.5-0.5-0.5-0.5-0.5h-0.5v-0.9707c0-1.12-0.892-2.0293-2-2.0293zm-0.050781 1c0.017091-8.531e-4 0.033469 0 0.050781 0 0.554 0 1 0.442 1 1v1h-2v-1c0-0.54056 0.41939-0.97355 0.94922-1z" fill="#555761" style="font-feature-settings:normal;font-variant-alternates:normal;font-variant-caps:normal;font-variant-ligatures:normal;font-variant-numeric:normal;font-variant-position:normal;isolation:auto;mix-blend-mode:normal;shape-padding:0;text-decoration-color:#000000;text-decoration-line:none;text-decoration-style:solid;text-indent:0;text-orientation:mixed;text-transform:none"/>
</svg>
